modules/zondicons/icons/envelope.svg

<?xml version="1.0" encoding="UTF-8" standalone="no"?>
<svg width="20px" height="20px" viewBox="0 0 20 20" version="1.1" xmlns="http://www.w3.org/2000/svg" xmlns:xlink="http://www.w3.org/1999/xlink">
    <!-- Generator: Sketch 3.7.2 (28276) - http://www.bohemiancoding.com/sketch -->
    <title>envelope</title>
    <desc>Created with Sketch.</desc>
    <defs></defs>
    <g id="Page-1" stroke="none" stroke-width="1" fill="none" fill-rule="evenodd">
        <g id="envelope" fill="#000000">
            <path d="M14.8780488,10.097561 L20,14 L20,16 L13.627451,11.0980392 L10,14 L6.37254902,11.0980392 L0,16 L0,14 L5.12195122,10.097561 L0,6 L0,4 L10,12 L20,4 L20,6 L14.8780488,10.097561 Z M18.0092049,2 C19.1086907,2 20,2.89451376 20,3.99406028 L20,16.0059397 C20,17.1072288 19.1017876,18 18.0092049,18 L1.99079514,18 C0.891309342,18 0,17.1054862 0,16.0059397 L0,3.99406028 C0,2.8927712 0.898212381,2 1.99079514,2 L18.0092049,2 Z" id="Combined-Shape"></path>
        </g>
    </g>
</svg>

<svg width="20" height="20" viewBox="0 0 20 20" xmlns="http://www.w3.org/2000/svg"><path d="M14.878 10.098L20 14v2l-6.373-4.902L10 14l-3.627-2.902L0 16v-2l5.122-3.902L0 6V4l10 8 10-8v2l-5.122 4.098zM18.009 2C19.11 2 20 2.895 20 3.994v12.012A1.997 1.997 0 0 1 18.01 18H1.99C.892 18 0 17.105 0 16.006V3.994C0 2.893.898 2 1.99 2h16.02z" fill="#000" fill-rule="evenodd"/></svg>
